static/assets/img/icons/theme/tools/tools.svg

<svg height="24" viewBox="0 0 24 24" width="24" xmlns="http://www.w3.org/2000/svg"><g fill="none" fill-rule="evenodd"><path d="m0 0h24v24h-24z" opacity="0"/><g fill="#000"><path d="m15.9497475 3.80761184-2.925135 2.92513497c-.7810486.78104858-.7810486 2.04737854 0 2.82842713l1.4142136 1.41421356c.7810485.7810486 2.0473785.7810486 2.8284271 0l2.925135-2.92513497c.5417219 1.99453457.0372059 4.20543477-1.5178292 5.76046977-1.8292264 1.8292265-4.5659998 2.2048073-6.7905656 1.1337114l-5.12663409 5.1266341c-.78104858.7810486-2.04737854.7810486-2.82842712 0-.78104859-.7810486-.78104859-2.0473785 0-2.8284271l5.1266341-5.1266341c-1.07109591-2.22456582-.69551505-4.96133921 1.13371141-6.79056565 1.555035-1.55503507 3.7659352-2.059551 5.7604698-1.51782911z"/><path d="m16.6568542 5.92893219 1.4142136 1.41421356c.3905243.39052429.3905243 1.02368927 0 1.41421356l-1.379675 1.37967509c-.3905243.3905243-1.0236893.3905243-1.4142136 0l-1.4142136-1.4142136c-.3905243-.39052429-.3905243-1.02368927 0-1.41421356l1.3796751-1.37967505c.3905243-.39052429 1.0236893-.39052429 1.4142135 0z" opacity=".3"/></g></g></svg>

<svg width="24px" height="24px" viewBox="0 0 24 24" version="1.1" xmlns="http://www.w3.org/2000/svg" xmlns:xlink="http://www.w3.org/1999/xlink">
    <title>Icon For Tools</title>
    <g stroke="none" stroke-width="1" fill="none" fill-rule="evenodd">
        <rect opacity="0" x="0" y="0" width="24" height="24"></rect>
        <path d="M15.9497475,3.80761184 L13.0246125,6.73274681 C12.2435639,7.51379539 12.2435639,8.78012535 13.0246125,9.56117394 L14.4388261,10.9753875 C15.2198746,11.7564361 16.4862046,11.7564361 17.2672532,10.9753875 L20.1923882,8.05025253 C20.7341101,10.0447871 20.2295941,12.2556873 18.674559,13.8107223 C16.8453326,15.6399488 14.1085592,16.0155296 11.8839934,14.9444337 L6.75735931,20.0710678 C5.97631073,20.8521164 4.70998077,20.8521164 3.92893219,20.0710678 C3.1478836,19.2900192 3.1478836,18.0236893 3.92893219,17.2426407 L9.05556629,12.1160066 C7.98447038,9.89144078 8.36005124,7.15466739 10.1892777,5.32544095 C11.7443127,3.77040588 13.9552129,3.26588995 15.9497475,3.80761184 Z" fill="#000000"></path>
        <path d="M16.6568542,5.92893219 L18.0710678,7.34314575 C18.4615921,7.73367004 18.4615921,8.36683502 18.0710678,8.75735931 L16.6913928,10.1370344 C16.3008685,10.5275587 15.6677035,10.5275587 15.2771792,10.1370344 L13.8629656,8.7228208 C13.4724413,8.33229651 13.4724413,7.69913153 13.8629656,7.30860724 L15.2426407,5.92893219 C15.633165,5.5384079 16.26633,5.5384079 16.6568542,5.92893219 Z" fill="#000000" opacity="0.3"></path>
    </g>
</svg>
